svg/database-restore.svg

<?xml version="1.0" encoding="UTF-8"?>
<svg xmlns="http://www.w3.org/2000/svg" xmlns:xlink="http://www.w3.org/1999/xlink" width="32" height="32" viewBox="0 0 32 32">
<path fill-rule="nonzero" fill="rgb(0%, 0%, 0%)" fill-opacity="1" d="M 16 0 C 7.960938 0 2.558594 2.976562 2.558594 5.757812 C 2.558594 8.539062 7.960938 11.519531 16 11.519531 C 24.039062 11.519531 29.441406 8.539062 29.441406 5.757812 C 29.441406 2.976562 24.039062 0 16 0 M 2.558594 8.710938 L 2.558594 12.257812 C 2.558594 14.992188 7.960938 17.921875 16 17.921875 C 24.039062 17.921875 29.441406 14.992188 29.441406 12.257812 L 29.441406 8.710938 C 27.089844 11.113281 22.023438 12.800781 16 12.800781 C 9.976562 12.800781 4.910156 11.113281 2.558594 8.710938 M 2.558594 15.300781 L 2.558594 18.683594 C 2.558594 21.417969 7.960938 24.320312 16 24.320312 C 17.84375 24.320312 19.535156 24.160156 21.066406 23.894531 L 20.019531 25.359375 C 18.6875 25.519531 17.34375 25.601562 16 25.601562 C 9.976562 25.601562 4.910156 24.132812 2.558594 21.730469 L 2.558594 25.054688 C 2.558594 27.789062 7.960938 30.71875 16 30.71875 C 18.972656 30.71875 21.570312 30.3125 23.679688 29.667969 L 23.679688 32 L 28.160156 32 L 28.160156 25.601562 L 31.992188 25.601562 L 30.546875 23.578125 L 28.484375 20.683594 C 29.097656 20.039062 29.441406 19.359375 29.441406 18.683594 L 29.441406 15.300781 C 27.089844 17.703125 22.023438 19.199219 16 19.199219 C 9.976562 19.199219 4.910156 17.703125 2.558594 15.300781 M 25.921875 19.296875 L 29.507812 24.320312 L 26.878906 24.320312 L 26.878906 30.71875 L 24.960938 30.71875 L 24.960938 24.320312 L 22.332031 24.320312 Z M 25.921875 19.296875 "/>
</svg>

<svg role="img" viewBox="0 0 32 32" height="32" width="32" xmlns="http://www.w3.org/2000/svg"><path d="M16 0C7.96 0 2.559 2.977 2.559 5.758S7.96 11.52 16 11.52c8.04 0 13.441-2.98 13.441-5.762C29.441 2.977 24.04 0 16 0M2.559 8.71v3.548c0 2.734 5.402 5.664 13.441 5.664 8.04 0 13.441-2.93 13.441-5.664V8.71C27.09 11.113 22.023 12.8 16 12.8c-6.023 0-11.09-1.688-13.441-4.09m0 6.59v3.383c0 2.734 5.402 5.636 13.441 5.636 1.844 0 3.535-.16 5.066-.425l-1.046 1.464a33.73 33.73 0 0 1-4.02.243c-6.023 0-11.09-1.47-13.441-3.872v3.325c0 2.734 5.402 5.664 13.441 5.664 2.973 0 5.57-.407 7.68-1.051V32h4.48v-6.398h3.832l-1.445-2.024-2.063-2.894c.614-.645.957-1.325.957-2V15.3C27.09 17.703 22.023 19.199 16 19.199c-6.023 0-11.09-1.496-13.441-3.898m23.363 3.996 3.586 5.023h-2.63v6.399h-1.917V24.32h-2.629Zm0 0"/></svg>
